X: 8
T: Trippevals "353"
T: Mince Waltz #353
O: trad Danmark
R: waltz
Z: 2007 John Chambers <jc@trillian.mit.edu>
S: http://www.folkdance.suite.dk/u14/main.htm
M: 3/4
L: 1/8
K: A
|:"A"A2 Ac Ac | e2 ec A2 |  A2 Ac BA | "E7"B2 BG E2 \
|    B2 Bc de | g2 gf e2 |1 B2 Bd cB |  "A"c2 cB A2 :|2 "E7"e2 f2 g2 | "A"a4 z2 |]
|:"A"c2 cB Ac | e2 e2 e2 |  c2 cB cd | "E7"B2 B2 B2 \
|    d2 dc de |1 g2 g2 g2 | "D"f2 f2 f2 | "A"e2 e2 e2 :|2 "E7"g2 g2 f2 | e2 f2 g2 | "A"a4 z2 :|
